source/img/interior.svg

<svg width="41" height="62" viewBox="0 0 41 62" fill="none" xmlns="http://www.w3.org/2000/svg">
<g opacity="0.5">
<path d="M15.5024 37.7564C15.1965 38.75 15.2985 39.9423 15.5024 41.3333C16.0124 43.9166 17.2363 47.2949 17.9502 50.9711H23.1517C23.8656 47.3942 25.0895 44.016 25.7014 41.3333C26.0074 39.9423 26.0074 38.6506 25.7014 37.7564C25.3955 36.8622 24.7835 36.1666 23.6616 35.4711H17.5422C16.3184 36.1666 15.7064 36.8622 15.5024 37.7564Z" fill="#149080"/>
<path d="M27.5373 57.6282H13.4627C12.1368 57.6282 11.1169 58.6218 11.1169 59.8141V62H13.4627H27.5373H29.8831V59.8141C29.8831 58.6218 28.8632 57.6282 27.5373 57.6282Z" fill="#149080"/>
<path d="M34.7786 2.28587H22.8458C22.8458 1.09357 21.8259 0.0999756 20.5 0.0999756C19.1741 0.0999756 18.1542 1.09357 18.1542 2.28587H6.22138L0 27.6224C0.81592 27.1256 1.63185 26.6288 2.65175 26.6288C4.07961 26.6288 4.89552 27.4237 5.60945 28.0198C6.32338 28.616 6.83333 28.8147 7.03731 28.8147C7.34328 28.8147 7.85323 28.5166 8.56716 28.0198C9.28109 27.5231 10.199 26.6288 11.5249 26.6288C12.8507 26.6288 13.7687 27.4237 14.4826 28.0198C15.1965 28.5166 15.7065 28.8147 16.0124 28.8147C16.1144 28.8147 16.3184 28.7154 16.6244 28.616C16.8283 28.5166 17.1343 28.2186 17.5423 28.0198C18.0522 27.6224 18.6642 27.0263 19.5821 26.8275C19.8881 26.7282 20.194 26.7282 20.5 26.7282C21.8259 26.7282 22.7438 27.5231 23.4577 28.1192C24.1716 28.616 24.6816 28.9141 24.9876 28.9141C25.2935 28.9141 25.8035 28.616 26.4154 28.1192C27.1293 27.5231 28.0472 26.7282 29.3731 26.7282C30.801 26.7282 31.6169 27.5231 32.3308 28.1192C32.6368 28.4173 32.9428 28.616 33.2487 28.7154C33.4527 28.8147 33.6567 28.9141 33.8607 28.9141C34.1667 28.9141 34.6766 28.616 35.2885 28.0198C36.0025 27.4237 36.9204 26.6288 38.2463 26.6288C39.2662 26.6288 40.0821 27.1256 40.898 27.6224L34.7786 2.28587Z" fill="#149080"/>
<path d="M23.9677 53.157H16.9304C16.2164 53.157 15.8085 53.6538 15.8085 54.25C15.8085 54.8461 16.3184 55.3429 16.9304 55.3429H23.9677C24.6816 55.3429 25.0896 54.8461 25.0896 54.25C25.1915 53.6538 24.6816 53.157 23.9677 53.157Z" fill="#149080"/>
<path d="M20.5 28.8141C20.398 28.8141 20.194 28.9134 19.8881 29.0128C19.6841 29.1122 19.4801 29.3109 19.2761 29.4102V33.0865H21.6219V29.5096C21.1119 29.1122 20.704 28.8141 20.5 28.8141Z" fill="#149080"/>
</g>
</svg>

<svg width="41" height="62" fill="none" xmlns="http://www.w3.org/2000/svg"><g opacity=".5" fill="#149080"><path d="M15.5 37.8c-.3 1-.2 2.1 0 3.5.5 2.6 1.7 6 2.5 9.7h5.2c.7-3.6 1.9-7 2.5-9.7a7 7 0 000-3.5c-.3-1-1-1.6-2-2.3h-6.2c-1.2.7-1.8 1.4-2 2.3zM27.5 57.6h-14c-1.4 0-2.4 1-2.4 2.2V62H30v-2.2c0-1.2-1-2.2-2.4-2.2zM34.8 2.3h-12c0-1.2-1-2.2-2.3-2.2-1.3 0-2.3 1-2.3 2.2h-12L0 27.6a5 5 0 012.7-1c1.4 0 2.2.8 3 1.4.6.6 1.1.8 1.3.8.3 0 .9-.3 1.6-.8.7-.5 1.6-1.4 3-1.4 1.3 0 2.2.8 2.9 1.4.7.5 1.2.8 1.5.8l.6-.2c.2 0 .5-.4 1-.6.5-.4 1-1 2-1.2h.9c1.3 0 2.2.7 3 1.3.7.5 1.2.8 1.5.8.3 0 .8-.3 1.4-.8.7-.6 1.6-1.4 3-1.4s2.2.8 3 1.4c.2.3.5.5.8.6l.7.2c.3 0 .8-.3 1.4-.9.7-.6 1.6-1.4 3-1.4 1 0 1.8.5 2.6 1L34.8 2.3zM24 53.2h-7c-.8 0-1.2.5-1.2 1 0 .6.5 1.1 1.1 1.1h7c.8 0 1.2-.5 1.2-1 0-.6-.4-1.1-1.1-1.1z"/><path d="M20.5 28.8l-.6.2-.6.4v3.7h2.3v-3.6c-.5-.4-.9-.7-1.1-.7z"/></g></svg>
